!!!!SEGMENT: pl-sa--134-a-iii-34--004_graun-carl-heinrich--antoni-splendor.krn
!!!id: 17xx:617
!!!COM: Graun, Carl Heinrich
!!!COM-rism: pe30001351
!!!CDT: 1704/05/07-1759/08/08
!!!CNT: German
!!!OTL: Antoni splendor
!!!PDT:
!!!SMS-siglum: PL-SA
!!!SMS-shelfmark: 134/A III 34
!!!NIFC-rismID: 1001041283
!!!URL-scan: http://bc.bdsandomierz.pl/dlibra/publication/1491/edition/1459/content
!!!ONB-nifc:
!!!SMS-variant:
!!!SMS-altvar:
**kern	**fba	**kern	**kern	**kern	**dynam	**kern	**text
*part5	*	*part4	*part3	*part2	*part2	*part1	*part1
*group2	*	*group2	*group2	*group2	*	*group1	*
*staff5	*	*staff4	*staff3	*staff2	*	*staff1	*staff1
*I"Baſso	*	*I"Viola	*I"Violino 2do.	*I"Violino 1mo	*	*I"	*
*I'b.c.	*	*I'Va	*I'Vn II	*I'Vn I	*	*I'	*
*clefF4	*	*clefC3	*clefG2	*clefG2	*	*clefC1	*
*k[f#c#g#d#]	*	*k[f#c#g#d#]	*k[f#c#g#d#]	*k[f#c#g#d#]	*	*k[f#c#g#d#]	*
*M3/8	*	*M3/8	*M3/8	*M3/8	*	*M3/8	*
!	!	!	!	!	!	!LO:TX:a:t=problem: żle wyliczone przez kopistę puste takty	!
!	!	!LO:TX:a:t=Adagio	!LO:TX:a:t=Adagio	!LO:TX:a:t=Adagio	!	!LO:TX:a:t=20	!
!LO:TX:b:t=Aria 4ta	!	!LO:TX:b:t=Aria 4ta	!LO:TX:b:t=Aria 4ta	!LO:TX:b:t=Aria 4ta	!	!LO:TX:a:t=problem:brak nazwy partii	!
!	!	!	!LO:TX:b:t=Con Sordini	!LO:TX:b:t=Con Sordini	!	!LO:TX:b:t=Aria 4ta	!
8r	.	8r	(<8g#/	8b\	.	8ryy	.
=1	=1	=1	=1	=1	=1	=1	=1
!	!	!	!	!	!	!LO:N:vis=00	!
4E\	.	4e\	8g#/L	(8b\L	.	1.r	.
.	.	.	8g#/	8ee\	.	.	.
8r	.	8r	[8f#/J	[8dd#\J	.	.	.
=2	=2	=2	=2	=2	=2	=2	=2
4E\	7 2	4e\	8f#/L]	8dd#\L]	.	.	.
.	.	.	8a/	8ff#\	.	.	.
8r	.	8r	[8g#/J	[8ee\J	.	.	.
=3	=3	=3	=3	=3	=3	=3	=3
4E\	8	4e\	8g#/L]	8ee\L]	.	.	.
.	.	.	8a/	8gg#\	.	.	.
8r	.	8r	8b/J	8ff#\J	.	.	.
=4	=4	=4	=4	=4	=4	=4	=4
8E\L	.	8e\L	8cc#\L)	[4.ee\)	.	.	.
8F#\	7	8f#\	8b\	.	.	.	.
8G#\J	6	8g#\J	8a\J	.	.	.	.
=5	=5	=5	=5	=5	=5	=5	=5
!	!	!	!LO:TX:a:t=problem:brak taktu	!	!	!LO:N:vis=00	!
4.A\	12 10	4.a\	4.ryy	8ee\L]	.	1.r	.
.	11 9	.	.	8dd#\	.	.	.
.	10 8	.	.	8cc#\J	.	.	.
=6	=6	=6	=6	=6	=6	=6	=6
4B\	8 6	4B/	8g#/	8b/	.	.	.
.	.	.	8qqg#/	8qqb/	.	.	.
.	.	.	4f#/	4a/	.	.	.
8BB/	7 5	8B/	.	.	.	.	.
=7	=7	=7	=7	=7	=7	=7	=7
8E\	.	8B\L	8e/L	(16g#\LL	.	.	.
.	.	.	.	16ee\JJ)	.	.	.
16r	.	16r	16r	4ddn\	.	.	.
!LO:LB:g=original	!	!	!	!	!	!	!
16E\LL	4	(16e\L	16g#/L	.	.	.	.
16F#\	7	16f#\	16a/	.	.	.	.
16G#\JJ	.	16g#\JJ)	16b/JJ	.	.	.	.
!	!	!LO:LB:g=original	!LO:LB:g=original	!LO:LB:g=original	!	!	!
=8	=8	=8	=8	=8	=8	=8	=8
8A\	.	8a\L	8cc#\L	(16cc#\LL	.	.	.
.	.	.	.	16ff#\JJ)	.	.	.
16r	.	16r	16r	4ee\	.	.	.
16F#\LL	.	(16f#\L	(16a#X\L	.	.	.	.
16G#\	7 #	16g#\	16b\	.	.	.	.
16A#X\JJ	.	16a#X\JJ)	16cc#\JJ)	.	.	.	.
=9	=9	=9	=9	=9	=9	=9	=9
!	!	!	!	!	!	!LO:N:vis=00	!
8B\	.	8b\L	8dd#\L	(16dd#\LL	.	1.r	.
.	.	.	.	16bb\JJ)	.	.	.
16r	.	16r	16r	4aa\	.	.	.
16B\LL	7	16b\L	(16dd#\L	.	.	.	.
16c#\	.	16cc#\	16ee\	.	.	.	.
16d#\JJ	.	16dd#\JJ	16ff#\JJ)	.	.	.	.
=10	=10	=10	=10	=10	=10	=10	=10
!	!	!	!	!LO:N:vis=16.	!	!	!
8e\L	.	8ee\L	(16.ee\LL	(16gg#\LL	.	.	.
.	.	.	.	32aa\L	.	.	.
.	.	.	64ff#\LL	32bb\JJJ)	.	.	.
.	.	.	64gg#\JJJJ)	.	.	.	.
8A\	6	8a\	8ff#\L	8aa\L	.	.	.
8A#X\J	7 5	8a#X\J	8ee\J	8gg#\J	.	.	.
=11	=11	=11	=11	=11	=11	=11	=11
8.B\L	6 4	8.b\L	8eeT\L	8gg#t\L	.	.	.
.	.	.	8dd#\J	8ff#\J	.	.	.
16An\L	5 3	(16an\L	.	.	.	.	.
16G#\	.	16g#\	8r	8r	.	.	.
16F#\JJ	.	16f#\JJ)	.	.	.	.	.
=12	=12	=12	=12	=12	=12	=12	=12
8E\	.	8e\	16ee\LL	(16gg#\LL	.	.	.
.	.	.	16gg#\JJ	16bb\JJ)	.	.	.
8r	.	8r	[8gg#\L	[8bb\	.	.	.
8B\	7	8b\	16gg#\L]	16bb\LL]	.	.	.
!	!	!	!LO:TX:a:t=problem: klamra łukowa nad triolą	!LO:TX:a:t=problem: klamra łukowa nad triolą	!	!	!
.	.	.	48ff#\L	48aa\L	.	.	.
.	.	.	48ee\	48gg#\	.	.	.
.	.	.	48dd#\JJJ	48ff#\JJJ	.	.	.
=13	=13	=13	=13	=13	=13	=13	=13
!	!	!	!	!	!	!LO:N:vis=00	!
8e\	.	8ee\	16ee\LL	16gg#\LL	.	1.r	.
.	.	.	16gg#\JJ	16bb\JJ	.	.	.
8r	.	8r	[8gg#\	8bb\	.	.	.
8B\	7	8b\	16gg#\LL]	16bb\LL	.	.	.
!	!	!	!LO:TX:a:t=problem: klamra łukowa nad triolą	!LO:TX:a:t=problem: klamra łukowa nad triolą	!	!	!
.	.	.	48ff#\L	48aa\L	.	.	.
.	.	.	48ee\	48gg#\	.	.	.
.	.	.	48dd#\JJJ	48ff#\JJJ	.	.	.
=14	=14	=14	=14	=14	=14	=14	=14
!LO:TX:a:t=problem: mixed beam	!	!	!	!	!	!	!
16E\LL	.	16e\LL	16ee\LL	16gg#\LL	.	.	.
16A\J	6	16A\JJ	32cc#\L	32aa\L	.	.	.
.	.	.	32a\JJJ	32ff#\JJJ	.	.	.
8B\	6 4	8B/L	8g#/L	8ee\L	.	.	.
8BB/J	5 3	8B/J	8aT/J	8ff#T\J	.	.	.
!LO:LB:g=original	!	!LO:LB:g=original	!LO:LB:g=original	!LO:LB:g=original	!	!	!
=15	=15	=15	=15	=15	=15	=15	=15
8E\	.	8e\	16g#\LL	16ee\LL	.	.	.
.	.	.	16cc#\	(16ee\	.	.	.
8r	.	8r	16b\	16dd#\	.	.	.
.	.	.	16a\	16cc#\	.	.	.
8r	.	8r	16g#\	16b\	.	.	.
.	.	.	16f#\JJ	16a\JJ)	.	.	.
=16	=16	=16	=16	=16	=16	=16	=16
8EE/	.	8E/	16e/LL	16g#/LL	.	.	.
.	.	.	16g#/JJ	16b/JJ	.	.	.
8r	.	8r	8g#/	8b/	.	.	.
8r	.	8B/	16g#/LL	16b/LL	.	.	.
!	!	!	!LO:TX:a:t=problem: klamra łukowa nad triolą	!LO:TX:a:t=problem: klamra łukowa nad trioląad triolą	!	!	!
!	!	!	!LO:TUP:b	!LO:TUP:b	!	!	!
.	.	.	48f#/L	48a/L	.	.	.
.	.	.	48e/	48g#/	.	.	.
.	.	.	48d#/JJJ	48f#/JJJ	.	.	.
=17	=17	=17	=17	=17	=17	=17	=17
!	!	!	!	!	!	!LO:N:vis=00	!
8E\	.	8e\	16e/LL	16g#/LL	.	2.r	.
.	.	.	16g#/JJ	16b/JJ	.	.	.
8r	.	8r	8g#/	8b/	.	.	.
!	!	!	!LO:TUP:b	!LO:TUP:b	!	!	!
8BB/	7	8B/	16g#/LL	16b/LL	.	.	.
!	!	!	!LO:TX:a:t=problem: klamra łukowa nad triolą	!LO:TX:a:t=problem: klamra łukowa nad triolą	!	!	!
.	.	.	48f#/L	48a/L	.	.	.
.	.	.	48e/	48g#/	.	.	.
.	.	.	48d#/JJJ	48f#/JJJ	.	.	.
=18	=18	=18	=18	=18	=18	=18	=18
8EE/L	.	8E/L	8e/	16g#\LL	.	.	.
.	.	.	.	16ee\JJ	.	.	.
.	.	.	8qqe/	8qqg#/	.	.	.
8BB/	.	8B/	4d#t/	4f#T/	.	.	.
8BB/J	.	8B/J	.	.	.	.	.
=19	=19	=19	=19	=19	=19	=19	=19
4EE/	.	4G#/	4e/	4e/	.	8r	.
.	.	.	.	.	.	8r	.
!	!	!	!LO:TX:a:t=[segno]	!LO:TX:a:t=[segno]	!	!LO:TX:a:t=[segno]	!
8r	.	8r	8g#/	(8b\	.	8b\	An-
=20	=20	=20	=20	=20	=20	=20	=20
!	!	!LO:TX:a:t=[segno]	!	!	!	!	!
4E\	.	4e\	(8g#/L	8b\L	.	(8b\	-to-
.	.	.	8g#/	8ee\	.	8ee\	.
8r	.	8r	[8f#/J	[8dd#\J	.	8dd#\)	-ni
=21	=21	=21	=21	=21	=21	=21	=21
4E\	7 2	4e\	8f#/L]	8dd#\L]	.	(8dd#\	Sple-
.	.	.	8a/	8ff#\	.	8ff#\	.
8r	.	8r	[8g#/J	[8ee\J	.	8ee\)	-ndor
=22	=22	=22	=22	=22	=22	=22	=22
4E\	8	4e\	8g#/L]	8ee\L]	.	(8b\	cae-
.	.	.	8b/	8gg#\	.	8gg#\	.
8r	.	8r	8a/J	8ff#\J)	.	8ff#\)	-tûs
!	!	!	!	!LO:LB:g=original	!	!	!
=23	=23	=23	=23	=23	=23	=23	=23
8E\L	.	(8e\L	(8g#/L)	[4.ee\	.	(4.ee\	et
8F#\	7	8f#\	8a/)	.	.	.	.
8G#\J	6	8g#\J)	8b/J	.	.	.	.
!	!	!	!LO:LB:g=original	!	!	!	!
=24	=24	=24	=24	=24	=24	=24	=24
!	!	!LO:TX:a:t=problem:custos B	!	!	!	!	!
4.A\	.	4.a\	(8cc#\L	8ee\L]	.	8ee\)	co-
.	.	.	8b\	8dd#\	.	8dd#\	-ro-
.	.	.	8a\J)	8cc#\J	.	8cc#\	-na
!LO:LB:g=original	!	!LO:PB:g=original	!	!	!	!LO:LB:g=original	!
=25	=25	=25	=25	=25	=25	=25	=25
4B\	.	4B/	8g#/	8b/	.	8b\	no-
.	.	.	8qqg#/	8qqb/	.	8qqb/	.
.	.	.	4f#/	4a/	.	4a\	.
8BB/	.	8B/	.	.	.	.	.
=26	=26	=26	=26	=26	=26	=26	=26
8C#\L	.	8c#\L	4e/	4g#/	.	4g#/	-stra
8c#\	.	8c#\	.	.	.	.	.
8B\J	.	8B\J	8r	8r	.	8r	.
=27	=27	=27	=27	=27	=27	=27	=27
8A\L	.	8A/L	4.e/	[4.cc#\	.	4.cc#\	O
8G#\	.	8G#/	.	.	.	.	.
8F#\J	.	8F#/J	.	.	.	.	.
=28	=28	=28	=28	=28	=28	=28	=28
4BB/	9	4B/	4d#/	8cc#\L]	.	8cc#\	An-
.	8	.	.	8b\	.	8b\	-to-
8r	7	8r	8f#/	8a\J	.	8a\	-ni
=29	=29	=29	=29	=29	=29	=29	=29
4.BB/	6 4	4B/	16.e/LL	16.g#\LL	.	16.g#\LL	Splen-
.	.	.	32a/JK	32cc#\JK	.	32cc#\JK	.
.	.	.	8g#/	8b\J	.	8b\J	.
.	5 3	8r	8d#/J	8f#/	.	8f#/	-dor
=30	=30	=30	=30	=30	=30	=30	=30
4E\	.	4e\	8r	8r	.	8r	.
.	.	.	8g#/L	8ee\L	.	8ee\L	an-
8r	.	8r	8f#/J	[8dd#\J	.	[8dd#\J	-to-
=31	=31	=31	=31	=31	=31	=31	=31
4E\	7 2	4e\	8f#/L	8dd#\L]	.	8dd#\L]	.
.	.	.	8a/	8ff#\	.	8ff#\	.
8r	.	8r	[8g#/J	[8ee\J	.	8ee\J	.
=32	=32	=32	=32	=32	=32	=32	=32
!	!	!	!LO:TX:a:t=problem: mixed beam	!	!	!	!
4E\	8	4e\	8g#/L]	8ee\L]	.	8b\	-ni
.	.	.	8ee\	8gg#\	.	8ee\	Thau-
8r	.	8r	[>8dd#\J	[8ff#\J	.	8dd#\	-ma-
=33	=33	=33	=33	=33	=33	=33	=33
4E\	5 2	4e\	8dd#\L]	8ff#\L]	.	8b\	-tur-
.	.	.	8ff#\	8aa\	.	8ff#\	-ge
8r	.	8r	8ee\J	[8gg#\J	.	8ee\	e-
!	!	!	!	!	!	!LO:LB:g=original	!
=34	=34	=34	=34	=34	=34	=34	=34
4E\	8	4e\	8ee\L	8gg#\L]	.	8b\	-xur-
.	.	.	8gg#\	8bb\	.	8gg#\	-ge
8r	.	8r	8ff#\J	8aa\J	.	8ff#\	ad
!	!	!	!	!LO:LB:g=original	!	!	!
=35	=35	=35	=35	=35	=35	=35	=35
8r	.	8r	[4.ee\	[4.gg#\	.	4.gg#\	pre-
8c#\L	.	8cc#\L	.	.	.	.	.
8B\J	6 4	8b\J	.	.	.	.	.
!	!	!	!LO:LB:g=original	!	!	!	!
=36	=36	=36	=36	=36	=36	=36	=36
4.A#X\	7 5	4.a#X\	8ee\L]	8gg#\L]	.	8gg#\	-ces
.	.	.	8dd#\	8ff#\	.	8ff#\	Thau-
.	.	.	8ee\J	8gg#\J	.	8gg#\	-ma-
!LO:PB:g=original	!	!	!	!	!	!	!
=37	=37	=37	=37	=37	=37	=37	=37
8r	.	8r	8ff#\	8aa\	.	8aa\	-tur-
.	.	.	8qqff#/	.	.	8qqaa/	.
8r	.	8r	4ee\	4gg#\	.	4gg#\	-ge
!	!	!LO:LB:g=original	!	!	!	!	!
8A#X\	7 5	8a#X\	.	.	.	.	.
=38	=38	=38	=38	=38	=38	=38	=38
4B\	.	4b\	8dd#\L	8ff#\L	.	8ee\	ex-
.	.	.	8dd#\	8bb\	.	8bb\	-ur-
8r	.	8r	[8cc#\J	8aa#X\J	.	8aa#X\	-ge
=39	=39	=39	=39	=39	=39	=39	=39
4B\	4 2	4b\	8cc#\L]	8aa\L	.	8bb\	ad
.	.	.	8ee\	8ccc#\	.	8ccc#\	pre-
8r	.	8r	[8dd#\J	[8bb\J	.	8bb\	-ces
=40	=40	=40	=40	=40	=40	=40	=40
4B\	.	4b\	8dd#\L]	8bb\L]	.	8b\L	no-
.	.	.	8b\	8dd#\	.	8dd#\J	.
8r	.	8r	8a#X\J	8cc#\J	.	8cc#\	-stras
=41	=41	=41	=41	=41	=41	=41	=41
8r	.	8r	16.b\LL	(16.dd#\LL	.	16.dd#\LL	et
.	.	.	32cc#\JK	32ee\JK	.	32ee\JK	.
8r	.	8r	8dd#\	8ff#\)	.	8ff#\J	.
8F#\	#	8f#\	8cc#\J	8ee\J	.	8ee\	fi-
!	!	!	!	!	!	!LO:LB:g=original	!
=42	=42	=42	=42	=42	=42	=42	=42
4BB/	.	4B/	8b/L	8dd#\L	.	8dd#\	-de-
.	.	.	8b/	8dd#\	.	8dd#\	-li-
8r	.	8r	8a#X/J	8cc#\J	.	8dd#\	-um
=43	=43	=43	=43	=43	=43	=43	=43
8r	.	8r	16.b\LL	16.dd#\LL	.	16.dd#\LL	Thau-
.	.	.	32cc#\JK	32ee\JK	.	32ee\JK	.
8r	.	8r	8dd#\	8ff#\	.	8ff#\	-ma-
8FF#/	7 #	8F#/	8cc#\J	8ee\J	.	8ee\J	.
=44	=44	=44	=44	=44	=44	=44	=44
(8BB/L	.	(8B/L	4.b\	8dd#\L	.	8dd#\L	-tur-
8E/	.	8e/	.	8gg#\	.	8gg#\J	.
8D#/J)	6	8d#/J)	.	8ff#\J	.	8ff#\	-ge
=45	=45	=45	=45	=45	=45	=45	=45
(8C#'/L	7 #	(8c#'\L	(8b'\L	(8ee#X'\L	.	8ee#X\	Thau-
*	*	*	*	*	*	*Xtuplet	*
!	!	!	!	!	!	!LO:TX:a:t=problem:brak oznaczenia triol	!
8C#'/	.	8c#'\	8b'\	8ee#'\	.	24ee#\LL	.
.	.	.	.	.	.	24gg#\	.
.	.	.	.	.	.	24ff#\JJ	.
8C#'/J)	.	8c#'\J)	8b'\J)	8ee#'\J)	.	24ee#X\LL	.
.	.	.	.	.	.	24dd#\	.
.	.	.	.	.	.	24cc#\JJ	.
!	!	!	!	!LO:LB:g=original	!	!	!
=46	=46	=46	=46	=46	=46	=46	=46
(8F#'\L	7 #	(8f#'\L	(8a#X'/L	(8een'\L	.	[8een\	.
8F#'\	.	8f#'\	8a#'/	8ee'\	.	24ee\LL]	.
.	.	.	.	.	.	24gg#\	.
.	.	.	.	.	.	24ff#\JJ	.
8F#'\J)	.	8f#'\J)	8a#'/J)	8ee'\J)	.	24ee\LL	.
.	.	.	.	.	.	24dd#\	.
.	.	.	.	.	.	24cc#\JJ	.
!LO:LB:g=original	!	!	!LO:LB:g=original	!	!	!	!
=47	=47	=47	=47	=47	=47	=47	=47
(8F#'\L	6 4	(8f#'\L	(8b'\L	(8dd#'\L	.	[8dd#\	.
8F#'\	.	8f#'\	8b'\	8dd#'\	.	24dd#\LL]	.
.	.	.	.	.	.	24ff#\	.
.	.	.	.	.	.	24ee\JJ	.
!	!	!	!	!	!	!LO:LB:g=original	!
8F#'\J)	.	8f#'\J)	8b'\J)	8dd#'\J)	.	24dd#\LL	.
.	.	.	.	.	.	24cc#\	.
.	.	.	.	.	.	24b\JJ	.
=48	=48	=48	=48	=48	=48	=48	=48
4F#\	.	4f#\	8a#X\L	8cc#\L	.	8a#X\	-ma-
.	.	.	8cc#\	8ee\	.	8ee\	-tur-
8r	.	8r	[8b\J	[8dd#\J	.	[8dd#\	-ge
=49	=49	=49	=49	=49	=49	=49	=49
4F#\	6 4	4f#\	8b\L]	8dd#\L]	.	8dd#\]	ex-
.	.	.	8dd#\	8ff#\	.	8ff#\	-ur-
8r	.	8r	[8cc#\J	[8ee\J	.	[8ee\	-ge
!	!	!LO:LB:g=original	!	!	!	!	!
=50	=50	=50	=50	=50	=50	=50	=50
4F#\	7	4f#\	8cc#\L]	8ee\L]	.	8ee\]	ad
.	.	.	8ee\	8gg#\	.	8gg#\	pre-
8r	.	8r	8dd#\J	8ff#\J	.	8ff#\	-ces
=51	=51	=51	=51	=51	=51	=51	=51
!LO:TX:a:t=1	!	!LO:TX:a:t=1	!	!	!	!	!
4.r	.	4.r	8cc#\L	8ee\L	.	8ee\	no-
.	.	.	8b\	8dd#\	.	8dd#\	-stras
.	.	.	8a#X\J	8cc#\J	.	8cc#\	An-
=52	=52	=52	=52	=52	=52	=52	=52
8r	.	8r	8b\	8ddn\	.	8ddn\	-to-
8B\L	#	8B/L	4f#/	4dd#X\	.	4dd#X\	-ni
8A\J	4	8A/J	.	.	.	.	.
=53	=53	=53	=53	=53	=53	=53	=53
8G#\L	.	8G#/L	8b\	8ee\	.	8ee\	Thau-
8c#\	.	8c#/	4g#/	4ee#X\	.	4ee#X\	-ma-
8B\J	.	8B/J	.	.	.	.	.
=54	=54	=54	=54	=54	=54	=54	=54
4.A#X\	6	4A#X/	4cc#\	8ff#\L	.	16ff#\LL	-tur-
.	.	.	.	.	.	16dd#\JJ	.
!	!	!	!	!	!	!LO:N:vis=4	!
.	.	.	.	8een\J	.	8een\	-ge
.	5	8r	8r	8r	.	8r	.
!	!	!	!	!LO:LB:g=original	!	!LO:LB:g=original	!
=55	=55	=55	=55	=55	=55	=55	=55
!	!	!	!LO:TX:a:t=problem: repetycja taktu	!LO:TX:a:t=problem: brak taktów w źródle	!	!	!
8B\	.	8b\	16b\LL	4.ryy	.	16dd#\LL	cae-
.	.	.	16dd#\JJ	.	.	16ff#\JJ	.
!	!	!	!LO:TX:a:t=Gis	!	!	!	!
8r	.	8r	(8dd#\	.	.	8ff#\	.
8F#\	#	8f#\	16dd#\LL)	.	.	16ff#\	.
*	*	*	*	*	*	*tuplet	*
!	!	!	!LO:TX:a:t=problem: klamra łukowa nad triolą	!	!	!LO:TX:a:t=problem: klamra łukowa nad triolą	!
.	.	.	48cc#\L	.	.	48ee\LLL	.
.	.	.	48b\	.	.	48dd#\	.
.	.	.	48a#X\JJJ	.	.	48cc#\JJJ	.
=56	=56	=56	=56	=56	=56	=56	=56
!	!	!	!LO:TX:a:t=problem:repetycja tt. 55	!	!	!	!
8BB/	.	8B/	16b\LLyy	4.ryy	.	16dd#\LL	.
.	.	.	16dd#\JJyy	.	.	16ff#\JJ	.
8r	.	8r	(8dd#\yy	.	.	8ff#\	.
8F#\	7 #	8f#\	16dd#\LL)yy	.	.	16ff#\	.
!	!	!	!LO:TX:a:t=problem: klamra łukowa nad triolą	!	!	!LO:TX:a:t=problem: klamra łukowa nad triolą	!
.	.	.	48cc#\Lyy	.	.	48ee\LLL	.
.	.	.	48b\yy	.	.	48dd#\	.
.	.	.	48a#X\JJJyy	.	.	48cc#\JJJ	.
=57	=57	=57	=57	=57	=57	=57	=57
16B\LL	.	16b\LL	16b/LL	4.ryy	.	16dd#\	.
16E\JJ	6	16e\JJ	32g#/L	.	.	(32ee\LLL	.
.	.	.	32e/JJJ	.	.	32cc#\JJJ)	.
!LO:TX:a:t=problem: mixed beam	!	!LO:TX:a:t=problem: mixed beam	!	!	!	!	!
8F#\L	6 4	8f#\L	8d#/L	.	.	8b\	-li
8FF#/J	5 #	8F#/J	8eT/J	.	.	8cc#T\	cae-
!LO:LB:g=original	!	!	!LO:LB:g=original	!	!	!	!
=58	=58	=58	=58	=58	=58	=58	=58
!	!	!	!LO:TX:a:t=problem: mixed beam	!	!	!	!
4BB/	.	4B/	16d#/LL	4.ryy	.	16b\LL	.
.	.	.	(16gg#\	.	.	16bb\	.
.	.	.	16ff#\	.	.	16aa#X\	.
.	.	.	16ee\	.	.	16gg#\	.
8r	.	8r	16dd#\	.	.	16ff#\	.
.	.	.	16cc#\JJ)	.	.	16ee\JJ	.
=59	=59	=59	=59	=59	=59	=59	=59
8B\	.	8b\	16b\LL	4.ryy	.	16dd#\LL	.
.	.	.	(16dd#\JJ	.	.	16ff#\JJ	.
8r	.	8r	8dd#\)	.	.	8ff#\	.
!	!	!	!	!	!	!LO:LB:g=original	!
8F#\	7 #	8f#\	16dd#\LL	.	.	16ff#\	.
!	!	!	!LO:TX:a:t=problem: klamra łukowa nad triolą	!	!	!LO:TX:a:t=problem: klamra łukowa nad triolą	!
.	.	.	48cc#\L	.	.	48ee\LLL	.
.	.	.	48b\	.	.	48dd#\	.
.	.	.	48a#X\JJJ	.	.	48cc#\JJJ	.
=60	=60	=60	=60	=60	=60	=60	=60
4BB/	.	8B/	16b\LL	(16dd#\LL	.	16dd#\LL	.
.	.	.	16dd#\JJ	16ff#\JJ)	.	16ff#\JJ	.
.	.	8r	8dd#\	8ff#\	.	8ff#\	.
!	!	!	!	!LO:LB:g=original	!	!	!
!	!	!	!	!LO:TX:a:t=de	!	!	!
*	*	*	*Xtuplet	*	*	*	*
16r	.	8f#\	16dd#\LL	(16ff#\LL	.	16ff#\	.
!	!	!	!LO:TX:a:t=problem:brak oznaczenia trioli	!	!	!LO:TX:a:t=problem: klamra łukowa nad triolą	!
16F#\	7 #	.	48cc#\L	48ee\L	.	48ee\LLL	.
.	.	.	48b\	48dd#\	.	48dd#\	.
.	.	.	48a#X\JJJ	48cc#\JJJ)	.	48cc#\JJJ	.
!	!	!LO:LB:g=original	!	!	!	!	!
=61	=61	=61	=61	=61	=61	=61	=61
16B\LL	.	16b\LL	16b\LL	16dd#\LL	.	16dd#\LL	.
16E\JJ	.	16e\JJ	32ee\L	32gg#\L	.	32gg#\L	.
.	.	.	32cc#\JJJ	32ee\JJJ	.	32ee\JJJ	.
!LO:TX:a:t=problem: mixed beam	!	!LO:TX:a:t=problem: mixed beam	!	!	!	!	!
8F#\L	6 4	8f#\L	8b/L	8dd#\L	.	8dd#\L	.
8FF#/J	5 #	8F#/J	8a#Xt/J	8cc#T\J	.	8cc#T\J	-li
=62	=62	=62	=62	=62	=62	=62	=62
!LO:TX:a:t=problem: mixed beam	!	!LO:TX:a:t=problem: mixed beam	!	!	!	!	!
8BB/L	.	8B/L	4b/	4b\	.	4b\	Thau-
16B\L	.	16b\L	.	.	.	.	.
16A\	.	16a\	.	.	.	.	.
16G#\	.	16g#\	8g#/	(8b\	.	8b\	-ma-
16F#\JJ	.	16f#\JJ	.	.	.	.	.
=63	=63	=63	=63	=63	=63	=63	=63
4E\	.	4e\	(8g#/L	8b\L	.	8b\	-tur-
.	.	.	8g#/	8ee\	.	8ee\	-ge
8r	.	8r	[8f#/J	[8dd#\J	.	8dd#\	e-
=64	=64	=64	=64	=64	=64	=64	=64
4E\	2	4e\	8f#/L]	8dd#\L]	.	8b\	-xur-
.	.	.	8a/	8ff#\	.	8ff#\	-ge
8r	.	8r	[8g#/J	[8ee\J	.	8ee\	an-
=65	=65	=65	=65	=65	=65	=65	=65
4E\	8	4e\	8g#/L]	8ee\L]	.	8b\	-to-
.	.	.	8b/	8gg#\	.	8gg#\	-ni
!	!	!	!	!	!	!LO:TX:a:t=problem: dźwięk niewidoczny w źrodle	!
8r	.	8r	8a/J)	8ff#\J	.	8ff#\yy	ad
!	!	!	!LO:LB:g=original	!	!	!LO:LB:g=original	!
=66	=66	=66	=66	=66	=66	=66	=66
(8E\L	4	(8e\L	(8g#/L	4ee\)	.	4ee\	pre-
8F#\	7	8f#\	8a/	.	.	.	.
8G#\J)	.	8g#\J)	8b/J)	8ddn\	.	8ddn\	-ces
!LO:LB:g=original	!	!	!	!	!	!	!
=67	=67	=67	=67	=67	=67	=67	=67
4.A\	5 3	4.a\	8a\L	8cc#\L	.	8cc#\	no-
.	6 4n	.	8ddn\	8ff#\	.	8ff#\	-stras
.	5 3	.	8cc#\J	8ee\J	.	8ee\	e-
=68	=68	=68	=68	=68	=68	=68	=68
!	!	!LO:TX:a:t=problem: mixed beam	!	!	!	!	!
8Dn/L	6	8dn\L	8b\	8ddn\	.	8ddn\	-xur-
.	.	.	8qqa/	8qqcc#/	.	.	.
8E/	6 4	8e\	4g#/	4b\	.	4b\	-ge
8EE/J	5 3	8E/J	.	.	.	.	.
!	!	!	!	!LO:LB:g=original	!	!	!
=69	=69	=69	=69	=69	=69	=69	=69
!	!	!	!	!LO:TX:a:t=problem: mixed beam	!	!	!
4AA/	.	4A/	8a\L	8a/L	.	8a\L	mo-
.	.	.	8cc#\	8aa\	.	(8aa\	.
8r	.	8r	[8b\J	[>8gg#\J	.	8gg#\J)	-du-
=70	=70	=70	=70	=70	=70	=70	=70
4AA/	4n 2	4A/	8b\L]	8gg#\L]	.	8gg#\	-lan-
.	.	.	8ddn\	8bb\	.	8bb\	-tes,
8r	.	8r	[8cc#\J	8aa\J	.	8aa\	ex-
=71	=71	=71	=71	=71	=71	=71	=71
!LO:TX:a:t=problem: brak taktu w źródle	!	!	!	!	!	!	!
4.ryy	.	4.A/	8cc#\L]	8aa\L	.	8cc#\L	-au-
.	.	.	8a\	8ff#\	.	8ff#\J	.
.	.	.	8g#\J	8ee\J	.	8ee\	-di
=72	=72	=72	=72	=72	=72	=72	=72
4.A\	5	4.B/	8f#/L	8dd#X\L	.	8dd#X\L	Thau-
.	8 6	.	8b/	8gg#\	.	8gg#\J	.
.	7 5	.	8a/J	8ff#\J	.	8ff#\	-ma-
!	!	!LO:LB:g=original	!	!	!	!	!
=73	=73	=73	=73	=73	=73	=73	=73
4.c#\	.	4.c#\	4g#/	4ee\	.	16.ee\LL	-tur-
.	.	.	.	.	.	32dd#\JJk	.
.	.	.	.	.	.	8ee\	-ge
.	.	.	8r	8r	.	8r	.
!	!	!	!	!	!	!LO:LB:g=original	!
=74	=74	=74	=74	=74	=74	=74	=74
!	!	!	!LO:TX:b:t=Volti Subito	!	!	!	!
8d#\L	6 5	(8d#\L	4.b\	4.ff#\	.	4.ff#\	et
8c#\	.	8c#\	.	.	.	.	.
8B\J	.	8B\J)	.	.	.	.	.
!	!	!	!LO:PB:g=original	!	!	!	!
=75	=75	=75	=75	=75	=75	=75	=75
4e\	9 4	4e\	8dd#\L	8ff#\L	.	8ff#\	ad
.	8 3n	.	8ee\	8ggn\	.	8ggn\	pre-
8r	7 2	8r	8dd#\J	[8ff#\J	.	8ff#\	-ces
=76	=76	=76	=76	=76	=76	=76	=76
!	!	!	!LO:TX:a:t=problem: mixed beam	!	!	!	!
4A#X\	7n 5	4A#X/	8dd#\L	8ff#\L]	.	8ff#\	no-
.	.	.	8ee\	8ggn\	.	8ggn\	-stras
8r	.	8r	8gn/J	8ee\J	.	8ee\	e-
=77	=77	=77	=77	=77	=77	=77	=77
!LO:TX:a:t=problem: mixed beam	!	!	!	!	!	!	!
8BB/L	6n 4	8B/L	8g#/L	8ee\L	.	8ee\L	-xur-
8B\	5 3	8B/	8f#/J	8dd#\J	.	8dd#\J	-ge
8A\J	.	8A/J	8r	8r	.	8r	.
=78	=78	=78	=78	=78	=78	=78	=78
8G#\L	6	8G#/L	8b/L	[4.ee\	.	8ee\	An-
8F#\	.	8F#/	8a/	.	.	8ee\	-to-
8E\J	.	8E/J	(8g#/J	.	.	8ee\	-ni
=79	=79	=79	=79	=79	=79	=79	=79
4.BB/	6 4	4.B/	8g#/L	8ee\L]	.	8ee\L	Pa-
.	5 3	.	8f#/J)	8dd#\	.	8dd#\	-dua-
.	.	.	8r	8b\J	.	8b\J	.
=80	=80	=80	=80	=80	=80	=80	=80
8r	.	8r	8r	[4.ddn\	.	4.ddn\	.
8G#\L	5	8g#\L	8b/L	.	.	.	.
8F#\J	n	8f#\J	8a/J	.	.	.	.
!	!	!	!	!LO:LB:g=original	!	!	!
=81	=81	=81	=81	=81	=81	=81	=81
4.E#X\	7	4.e#X\	4.g#/	8dd\L]	.	8dd#\L	.
.	6	.	.	8cc#\	.	8cc#\	.
.	5	.	.	8b\J	.	8b\J	.
=82	=82	=82	=82	=82	=82	=82	=82
!	!	!	!	!LO:TX:a:t=problem: mixed beam	!	!	!
4.F#\	.	4.f#\	8f#/	8a/L	.	8a\L	.
.	.	.	[4a/	8ff#\	.	8ff#\	.
.	.	.	.	8ee\J	.	8ee\J	.
!	!	!	!	!	!	!LO:LB:g=original	!
=83	=83	=83	=83	=83	=83	=83	=83
4.BB/	7 #	4.B/	8a/L]	4.dd#\	.	8dd#\L	.
.	.	.	8b/	.	.	8b\	.
.	.	.	8a/J	.	.	8a\J	.
=84	=84	=84	=84	=84	=84	=84	=84
4.E\	n7	4.e\	4.g#/	8ddn\L	.	8g#\L	.
.	.	.	.	8ee\	.	8ee\	.
.	.	.	.	8dd\J	.	8ddn\J	.
!	!	!	!LO:LB:g=original	!	!	!	!
=85	=85	=85	=85	=85	=85	=85	=85
(8AA~/L	7	(8A'/L	(8g#'/L	(8cc#'\L	.	8.cc#\L	.
8AA~/	6	8A'/	8f#'/	8cc#'\	.	.	.
.	.	.	.	.	.	16een\L	.
8AA/J)	.	8A'/J)	8f#'/J)	8cc#'\J)	.	16ff#\	.
.	.	.	.	.	.	16dd#X\JJ	.
!	!	!LO:LB:g=original	!	!	!	!	!
=86	=86	=86	=86	=86	=86	=86	=86
(8GG#/L	.	(8G#'/L	(8f#'/L	(8b'/L	.	8.b\L	.
8GG#~/	7	8G#'/	8e'/	8b'/	.	.	.
.	.	.	.	.	.	16dd#\L	.
8GG#~/J)	6	8G#'/J)	8e'/J)	8b'/J)	.	16ee\	.
.	.	.	.	.	.	16cc#\JJ	.
=87	=87	=87	=87	=87	=87	=87	=87
.	.	.	.	8qqb/	.	.	.
4FF#/	7	4F#/	8e/L	4a/	.	4a\	.
.	6	.	8d#/	.	.	.	.
8EE/	.	8E/	8e/J	8g#/	.	8g#/	-ne
=88	=88	=88	=88	=88	=88	=88	=88
!	!	!	!	!LO:TX:a:t=problem: mixed beam	!	!	!
4BB/	.	4B/	8d#/L	8f#/L	.	8f#/	e-
.	.	.	8g#/	8ee\	.	8ee\	-xur-
8r	.	8r	[8f#/J	[>8dd#\J	.	8dd#\	-ge
!LO:LB:g=original	!	!	!	!	!	!	!
=89	=89	=89	=89	=89	=89	=89	=89
4BB/	.	4B/	8f#/L]	8dd#\L]	.	8dd#\	o
.	.	.	8a/	8ff#\	.	8ff#\	di-
8r	.	8r	[8g#/J	8ee\J	.	8ee\	-ve
=90	=90	=90	=90	=90	=90	=90	=90
!	!	!	!LO:TX:a:t=problem: mixed beam	!	!	!	!
4BB/	6 4	4B/	8g#\/]	8ee\L	.	8b\L	di-
.	.	.	8ee\	8gg#\	.	8ee\J	.
!	!	!	!	!	!	!LO:LB:g=original	!
8r	.	8r	8dd#\J	8ff#\J	.	8dd#\	-ve
=91	=91	=91	=91	=91	=91	=91	=91
8r	.	8r	16.ee\LL	16.gg#\LL	.	16.ee\LL	Thau-
.	.	.	32ff#\JK	32aa\JK	.	32ff#\JK	.
8r	.	8r	8gg#\	8bb\	.	8gg#\J	.
8d#\	6 5	8dd#\	8ff#\J	8aa\J	.	8ff#\	-ma-
!	!	!	!	!LO:LB:g=original	!	!	!
=92	=92	=92	=92	=92	=92	=92	=92
8e\L	.	8ee\L	8ee\L	8gg#\L	.	8ee\	-tur-
8B\J	.	8b\J	8dd#\J	8ff#\J	.	8dd#\	-ge
8r	.	8r	8r	8r	.	8r	.
=93	=93	=93	=93	=93	=93	=93	=93
4.C#/	6|	4c#\	8g#/	4.ee\	.	8ee\	San-
.	.	.	4a#X/	.	.	16dd#\LL	-cte
.	.	.	.	.	.	16cc#\JJ	.
.	.	8r	.	.	.	16b\LL	an-
.	.	.	.	.	.	16a#X\JJ	.
=94	=94	=94	=94	=94	=94	=94	=94
4.D#/	6 5n	4d#\	8b/	8ff#\	.	8ff#\	-to-
.	.	.	.	8qqb/	.	.	.
.	.	.	4f#/	4a/	.	4a\	-ni
.	.	8r	.	.	.	.	.
!	!	!	!LO:LB:g=original	!	!	!	!
=95	=95	=95	=95	=95	=95	=95	=95
4E\	.	4e\	8e/L	(8g#/L	.	8g#\L	di-
.	.	.	8a/	8cc#/	.	8cc#\J	.
8r	.	8r	8g#/J	8b/J)	.	8b\	-ve
=96	=96	=96	=96	=96	=96	=96	=96
8r	.	8r	8f#/L	8dd#\L	.	8dd#\L	Thau-
8r	.	8r	8g#/	8ee\	.	8ee\J	.
8GG#/	.	8G#/	8e/J	8b\J	.	8b\	-ma-
=97	=97	=97	=97	=97	=97	=97	=97
*	*	*	*tuplet	*Xtuplet	*	*Xtuplet	*
!	!	!	!LO:TX:a:t=problem: klamra łukowa nas triolą	!LO:TX:a:t=problem:brak oznaczenia trioli	!	!LO:TX:a:t=problem:brak oznaczenia trioli	!
!	!	!	!LO:TUP:b	!	!	!	!
8AA/	.	8A/	24a/LL	24cc#\LL	.	24cc#\LL	-tur-
.	.	.	24g#/	24b\	.	24b\	.
.	.	.	24f#/JJ	24a\JJ	.	24a\JJ	.
.	.	.	8qqe/	8qqg#/	.	.	.
!	!	!	!	!	!	!LO:LB:g=original	!
4BB/	.	4B/	4d#/	4f#T/	.	4f#/	-ge
!	!	!LO:LB:g=original	!	!	!	!	!
=98	=98	=98	=98	=98	=98	=98	=98
*	*	*	*	*tuplet	*	*	*
!	!	!	!	!LO:TX:a:t=problem:klamra łukowa nad triolą	!LO:DY:a	!	!
!	!	!	!	!	!LO:DY:t=for	!	!
8EE/	.	8E/	16ee\LL	16gg#\LL	f	16gg#\LL	An-
.	.	.	16gg#\JJ	16bb\JJ	.	16bb\JJ	.
8r	.	8r	8gg#\	8bb\	.	8bb\	-to-
8BB/	6	8B/	16gg#\LL	16bb\LL	.	16bb\	.
*	*	*	*	*	*	*tuplet	*
!	!	!	!LO:TX:a:t=problem: klamra łukowa nad triolą	!LO:TX:a:t=problem: klamra łukowa	!	!LO:TX:a:t=problem: klamra łukowa nad triolą	!
.	.	.	48ff#\L	48aa\L	.	48aa\LLL	-ni
.	.	.	48ee\	48gg#\	.	48gg#\	.
.	.	.	48dd#\JJJ	48ff#\JJJ	.	48ff#\JJJ	.
!LO:LB:g=original	!	!	!	!	!	!	!
=99	=99	=99	=99	=99	=99	=99	=99
8E\	.	8e\	8ee\	8gg#\	.	16g#\LL	e-
.	.	.	.	.	.	16b\JJ	.
8r	.	8r	8r	8r	.	8b\	.
8BB/	7	8B/	8f#/	8a/	.	16b\	.
!	!	!	!	!	!	!LO:TX:a:t=problem: klamra łukowa nad triolą	!
.	.	.	.	.	.	48a\LLL	.
.	.	.	.	.	.	48g#\	.
.	.	.	.	.	.	48f#\JJJ	.
=100	=100	=100	=100	=100	=100	=100	=100
*	*	*	*	*	*	*Xtuplet	*
!	!	!	!	!	!	!LO:TX:a:t=problem:brak oznaczenia trioli	!
8EE/	.	8E/	16ee\LL	16gg#\LL	.	24g#/LL	-xur-
.	.	.	.	.	.	24f#/	.
.	.	.	16gg#\JJ	16bb\JJ	.	.	.
.	.	.	.	.	.	24e/JJ	.
8r	.	8r	8gg#\	8bb\	.	8e/	-ge
8BB/	7	8B/	16gg#\LL	16bb\LL	.	16r	.
!	!	!	!LO:TX:a:t=problem: klamra łukowa nad triolą	!LO:TX:a:t=problem: klamra łukowa nad triolą	!	!	!
.	.	.	48ff#\L	48aa\L	.	16b\	An-
.	.	.	48ee\	48gg#\	.	.	.
.	.	.	48dd#\JJJ	48ff#\JJJ	.	.	.
!	!	!	!	!LO:LB:g=original	!	!	!
=101	=101	=101	=101	=101	=101	=101	=101
8E\	.	8e\	8ee\	8gg#\	.	16.b\	-to-
.	.	.	.	.	.	32ee\	.
8r	.	8r	8r	8r	.	8b\	.
8BB/	7	8B/	8f#/	8a/	.	16b\	.
*	*	*	*	*	*	*tuplet	*
!	!	!	!	!	!	!LO:TX:a:t=problem: klamra łukowa nad triolą	!
.	.	.	.	.	.	48a\LLL	.
.	.	.	.	.	.	48g#\	.
!	!	!	!	!	!	!LO:TX:b:t=Volti subito	!
.	.	.	.	.	.	48f#\JJJ	.
!	!	!	!	!	!	!LO:PB:g=original	!
=102	=102	=102	=102	=102	=102	=102	=102
*	*	*	*	*	*	*Xtuplet	*
!	!	!	!	!	!	!LO:TX:a:t=problem:brak oznaczenia trioli	!
4EE/	.	4E/	4e/	4g#/	.	24g#/LL	.
.	.	.	.	.	.	24f#/	.
.	.	.	.	.	.	24e/JJ	.
.	.	.	.	.	.	8e/	-ni
8r	.	8r	8r	8r	.	8r	.
!	!	!	!LO:LB:g=original	!	!	!	!
=103	=103	=103	=103	=103	=103	=103	=103
8c#\L	6	(8c#/L	8a/L	[4.ee\	.	8ee\	di-
8B\	6 4	8B/	8g#/	.	.	8ee\	-ve
8A\J	5 3	8A/J)	8f#/J	.	.	8ee\	an-
=104	=104	=104	=104	=104	=104	=104	=104
8G#\L	6	8G#/L	8b/L	4.ee\_	.	4.ee;\	-to-
8F#\	7	8F#/	8a/	.	.	.	.
8E\J	.	8E/J	8g#/J	.	.	.	.
=105	=105	=105	=105	=105	=105	=105	=105
!	!	!	!	!LO:TX:b:t=Volti Subito	!	!	!
[4.BB/	6 4	[4.B/	4.g#;/	4.ee;\]	.	4.f#T/	-ni
!	!	!	!	!LO:PB:g=original	!	!	!
=106	=106	=106	=106	=106	=106	=106	=106
!	!	!	!	!	!	!LO:TX:a:t=12	!
!	!	!	!	!	!	!LO:N:vis=00	!
4.BB/]	.	4.B/]	4.d#/	4.f#T/	.	1.r	.
=107	=107	=107	=107	=107	=107	=107	=107
8E\	.	8e\L	8e/L	(16g#\LL	.	.	.
.	.	.	.	16ee\JJ)	.	.	.
16r	.	16r	16r	4ddn\	.	.	.
!LO:LB:g=original	!	!	!	!	!	!	!
(16E\LL	7	(16e\L	(16g#/L	.	.	.	.
16F#\	n	16f#\	16a/	.	.	.	.
16G#\JJ)	.	16g#\JJ)	16b/JJ)	.	.	.	.
!	!	!LO:LB:g=original	!	!	!	!	!
=108	=108	=108	=108	=108	=108	=108	=108
8A\	.	8a\L	8cc#\L	(16cc#\LL	.	.	.
.	.	.	.	16ff#\JJ)	.	.	.
16r	.	16r	16r	4ee\	.	.	.
16F#\LL	7 #	(16f#\L	16a#X\L	.	.	.	.
16G#\	.	16g#\	16b\	.	.	.	.
16A#X\JJ	.	16a#X\JJ)	16cc#\JJ	.	.	.	.
=109	=109	=109	=109	=109	=109	=109	=109
8B\	.	8b\L	8dd#\L	(16dd#\LL	.	.	.
.	.	.	.	16bb\JJ)	.	.	.
16r	.	16r	16r	4aa\	.	.	.
(16B\LL	7	16b\L	16dd#\L	.	.	.	.
16c#\	.	16cc#\	16ee\	.	.	.	.
16d#\JJ)	.	16dd#\JJ	16ff#\JJ	.	.	.	.
=110	=110	=110	=110	=110	=110	=110	=110
!	!	!	!	!	!	!LO:N:vis=00	!
8e\L	.	8ee\L	(16ee\LL	(16.gg#\LL	.	1.r	.
.	.	.	32ff#\L	.	.	.	.
.	.	.	32gg#\JJJ)	64aa\LL)	.	.	.
.	.	.	.	64bb\JJJJ	.	.	.
8A\	6	8a\	8ff#\L	8aa\L	.	.	.
8A#X\J	7 5	8a#X\J	8ee\J	8gg#\J	.	.	.
=111	=111	=111	=111	=111	=111	=111	=111
8.B\L	6 4	8.b\L	8eeT\L	8gg#t\L	.	.	.
.	.	.	8dd#\J	8ff#\J	.	.	.
16An\L	5 3	(16an\L	.	.	.	.	.
16G#\	.	16g#\	8r	8r	.	.	.
16F#\JJ	.	16f#\JJ)	.	.	.	.	.
=112	=112	=112	=112	=112	=112	=112	=112
8E\	.	8e\	16ee\LL	(16gg#\LL	.	.	.
.	.	.	16gg#\JJ	16bb\JJ)	.	.	.
8r	.	8r	8gg#\	8bb\	.	.	.
!	!	!	!LO:LB:g=original	!	!	!	!
8B\	7	8b\	16gg#\LL	16bb\LL	.	.	.
!	!	!	!LO:TX:a:t=problem: klamra łukowa nad triolą	!LO:TX:a:t=problem: klamra łukowa nad triolą	!	!	!
.	.	.	48ff#\L	48aa\L	.	.	.
.	.	.	48ee\	48gg#\	.	.	.
.	.	.	48dd#\JJJ	48ff#\JJJ	.	.	.
=113	=113	=113	=113	=113	=113	=113	=113
8e\	.	8ee\	16ee\LL	16gg#\LL	.	.	.
.	.	.	16gg#\JJ	16bb\JJ	.	.	.
8r	.	8r	8gg#\	8bb\	.	.	.
8B\	7	8b\	16gg#\LL	16bb\LL	.	.	.
!	!	!	!LO:TX:a:t=problem: klamra łukowa nad triolą	!LO:TX:a:t=problem: klamra łukowa nad triolą	!	!	!
.	.	.	48ff#\L	48aa\L	.	.	.
.	.	.	48ee\	48gg#\	.	.	.
.	.	.	48dd#\JJJ	48ff#\JJJ	.	.	.
!LO:LB:g=original	!	!	!	!LO:LB:g=original	!	!	!
=114	=114	=114	=114	=114	=114	=114	=114
!	!	!	!	!	!	!LO:N:vis=00	!
16E\LL	.	16e\LL	16ee\LL	16gg#\LL	.	1.r	.
16A\JJ	6	16a\JJ	32cc#\L	(32aa\L	.	.	.
.	.	.	32a\JJJ	32ff#\JJJ)	.	.	.
!LO:TX:a:t=problem: mixed beam	!	!LO:TX:a:t=problem: mixed beam	!	!	!	!	!
8B\L	6 4	8b\L	8g#/L	8ff#\L	.	.	.
8BB/J	5 3	8B/J	8aT/J	8ff#T\J	.	.	.
=115	=115	=115	=115	=115	=115	=115	=115
8E\	.	8e\	16g#\LL	16ff#\LL	.	.	.
.	.	.	(16cc#\	(16ee\	.	.	.
8r	.	8r	16b\	16dd#\	.	.	.
.	.	.	16a\	16cc#\	.	.	.
8r	.	8r	16g#\	16b\	.	.	.
.	.	.	16f#\JJ)	16a\JJ)	.	.	.
!	!	!LO:LB:g=original	!	!	!	!	!
=116	=116	=116	=116	=116	=116	=116	=116
8EE/	.	8E/	16e/LL	16g#/LL	.	.	.
.	.	.	16g#/JJ	16b/JJ	.	.	.
8r	.	8r	8g#/	8b/	.	.	.
8BB/	.	8B/	16g#/LL	16b/LL	.	.	.
!	!	!	!LO:TX:a:t=problem: klamra łukowa nad triolą	!LO:TX:a:t=problem: klamra łukowa nad triolą	!	!	!
!	!	!	!LO:TUP:b	!LO:TUP:b	!	!	!
.	.	.	48f#/L	48a/L	.	.	.
.	.	.	48e/	48g#/	.	.	.
.	.	.	48d#/JJJ	48f#/JJJ	.	.	.
=117	=117	=117	=117	=117	=117	=117	=117
8E\	.	8e\	16e/LL	16g#/LL	.	.	.
.	.	.	16g#/JJ	16b/JJ	.	.	.
8r	.	8r	8g#/	8b\	.	.	.
8BB/	.	8B/	16g#/LL	16b/LL	.	.	.
!	!	!	!LO:TX:a:t=problem: klamra łukowa nad triolą	!LO:TX:a:t=problem: klamra łukowa nad triolą	!	!	!
!	!	!	!LO:TUP:b	!LO:TUP:b	!	!	!
.	.	.	48f#/L	48a/L	.	.	.
.	.	.	48e/	48g#/	.	.	.
.	.	.	48d#/JJJ	48f#/JJJ	.	.	.
=118	=118	=118	=118	=118	=118	=118	=118
!	!	!	!	!	!	!LO:TX:a:t=problem:brakuje taktu	!
8EE/L	.	8E/L	8e/	(16g#\LL	.	4.ryy	.
.	.	.	.	16ee\JJ)	.	.	.
.	.	.	8qqe/	8qqg#/	.	.	.
8BB/	.	8B/	4d#t/	4f#T/	.	.	.
8BB/J	.	8B/J	.	.	.	.	.
!	!	!	!LO:LB:g=original	!	!	!	!
=119	=119	=119	=119	=119	=119	=119	=119
4EE;/	.	4G#;/	4e;/	4e;/	.	4r	.
.	.	.	.	.	.	.	.
8r	.	8r	8e/	8g#/	.	8g#/	Po-
=120	=120	=120	=120	=120	=120	=120	=120
4C#/	.	4c#\	8e/L	8g#\L	.	(8g#\	-ten-
.	.	.	8e/	8cc#\	.	8cc#\	.
8r	.	8r	[8d#/J	[8b#X\J	.	8b#X\)	-ti
!	!	!	!	!LO:LB:g=original	!	!	!
=121	=121	=121	=121	=121	=121	=121	=121
4C#/	4 2	4c#\	8d#/L]	8b#\L]	.	(8g#\	tu-
.	.	.	8f#/	8dd#\	.	8cc#\)	.
8r	.	8r	[8e/J	[8cc#\J	.	8b\	-o
=122	=122	=122	=122	=122	=122	=122	=122
4C#/	.	4c#\	8e/L]	8cc#\L]	.	8g#\	in-
.	.	.	8g#/	8ee\	.	8ee\	-ter-
8r	.	8r	8f#/J	8dd#\J	.	8dd#\	-pel-
!LO:LB:g=original	!	!	!	!	!	!LO:N:vis=00	!
=123	=123	=123	=123	=123	=123	=123	=123
8C#/L	.	(8c#\L	8e/L	[4.cc#\	.	4.cc#\	-la-
8D#/	.	8d#\	8f#/	.	.	.	.
8E/J	.	8e\J)	8g#/J	.	.	.	.
=124	=124	=124	=124	=124	=124	=124	=124
4F#\	.	4f#\	8a\	8cc#\L]	.	8cc#\	-ta
.	.	.	4cc#\	8aa\	.	8aa\	a-
8E\	6	8e\	.	8gg#\J	.	8gg#\	-ge
=125	=125	=125	=125	=125	=125	=125	=125
!LO:TX:a:t=problem: mixed beam	!	!LO:TX:a:t=problem: mixed beam	!	!	!	!	!
8D#/L	.	8d#\L	8dd#\	8ff#\	.	8ff#\	cau-
.	.	.	.	8qqee/	.	8qqee/	.
8G#/	6 4	8g#\	4b#X\	4dd#\	.	4dd#\	-sam
8GG#\J	5 3	8G#/J	.	.	.	.	.
=126	=126	=126	=126	=126	=126	=126	=126
4C#/	.	4c#\	8cc#\L	8cc#\L	.	8cc#\	ad
.	.	.	8ff#\	8aa\	.	8aa\	De-
8r	.	8r	8ee\J	8gg#\J	.	8gg#\	-um
=127	=127	=127	=127	=127	=127	=127	=127
!LO:TX:a:t=problem: mixed beam	!	!LO:TX:a:t=problem: mixed beam	!	!	!	!	!
8F#\L	.	8f#\L	8dd#\	8ff#\	.	8ff#\	ma-
.	.	.	.	8qqee/	.	.	.
8G#\	.	8g#\	4b#X\	4dd#\	.	4dd#\	-ge
8GG#/J	.	8G#/J	.	.	.	.	.
!	!	!LO:LB:g=original	!	!	!	!	!
=128	=128	=128	=128	=128	=128	=128	=128
4C#/	.	4c#/	8cc#\L	8cc#\	.	4ee\	Ser-
.	.	.	8cc#\	[4ee\	.	.	.
8r	.	8r	8bn\J	.	.	8ee\	-vos
!	!	!	!LO:LB:g=original	!	!	!	!
=129	=129	=129	=129	=129	=129	=129	=129
4c#\	6	4.c#\	[4.a/	8ee\L]	.	8ee\L	cli-
.	.	.	.	8ff#\	.	8ff#\J	.
8r	.	.	.	8ee\J	.	8ee\	-en-
=130	=130	=130	=130	=130	=130	=130	=130
4B#X\	.	4.B#X/	8a/L]	[4.dd#\	.	4.dd#\	-tes
.	.	.	8g#/	.	.	.	.
8r	.	.	8f##X/J	.	.	.	.
=131	=131	=131	=131	=131	=131	=131	=131
!	!	!	!	!	!	!LO:N:vis=8.	!
4.Bn\	6	4.Bn/	[4.g#/	8dd#\L]	.	4g#/	pre-
.	.	.	.	8ee\	.	.	.
.	.	.	.	8dd#\J	.	8g#/	-ce
!	!	!	!	!	!	!LO:N:vis=00	!
=132	=132	=132	=132	=132	=132	=132	=132
4.A#X\	7	4.A#X/	8g#/L]	4.cc#\	.	4cc#\	tu-
.	.	.	8f#/	.	.	.	.
.	.	.	8e#X/J	.	.	8cc#\	-a
=133	=133	=133	=133	=133	=133	=133	=133
4.An\	6	4.An/	4.f#/	8cc#\L	.	8dd#\L	su-
.	.	.	.	8.ff#\J	.	8.ff#\J	.
!	!	!	!	!LO:LB:g=original	!	!	!
.	.	.	.	16dd#\	.	16dd#\	-ble-
!LO:LB:g=original	!	!	!	!	!	!	!
=134	=134	=134	=134	=134	=134	=134	=134
.	.	.	.	8qqcc#/	.	.	.
4.G#\	7 #	4.G#/	4.d#/	4b#X\	.	4b#X\	-va
.	.	.	.	8r	.	8r	.
=135	=135	=135	=135	=135	=135	=135	=135
4.C#/	.	4.c#\	4.e#X/	4.cc#\	.	8cc#\	po-
.	.	.	.	.	.	8cc#\	-ten-
.	.	.	.	.	.	8b\	-ti
=136	=136	=136	=136	=136	=136	=136	=136
8F#\	#	8F#/	8f#/L	16a#X\LL	.	16a#X\LL	in-
.	.	.	.	16ff#\JJ	.	16ff#\JJ	.
16r	.	16r	16r	4een\	.	4een\	-ter-
16F#\LL	7	(16f#\LL	16a#X/L	.	.	.	.
16G#\	.	16g#\	16b/	.	.	.	.
16A#X\JJ	.	16a#X\JJ)	16cc#/JJ	.	.	.	.
=137	=137	=137	=137	=137	=137	=137	=137
8B\	.	8b\	8f#/L	16dd#\LL	.	16dd#\LL	-ceſ-
.	.	.	.	16b\JJ	.	16b\JJ	.
16r	.	16r	16r	4an/	.	4a\	-si-
16BB/LL	7	16B/LL	16d#/L	.	.	.	.
16C#/	.	16c#/	16e/	.	.	.	.
16D#/JJ	.	16d#/JJ	16f#/JJ	.	.	.	.
=138	=138	=138	=138	=138	=138	=138	=138
8E\	.	8e\	8g#\L	(16g#\LL	.	16g#\LL	-o-
.	.	.	.	16ee\JJ)	.	16ee\JJ	.
16r	.	16r	16r	4ddn\	.	4ddn\	-ne
16E\LL	n	16e\LL	16g#\L	.	.	.	.
16F#\	7	16f#\	16a\	.	.	.	.
16G#\JJ	.	16g#\JJ	16b\JJ	.	.	.	.
!	!	!	!LO:LB:g=original	!	!	!	!
=139	=139	=139	=139	=139	=139	=139	=139
8A\	.	8a\	8b\L	(8cc#\L	.	8cc#\	e-
8r	.	8r	8b\	8ddn\	.	8ddn\	-ge
!LO:TX:b:t=Volti Subito	!	!	!	!	!	!LO:LB:g=original	!
8r	.	8r	8cc#\J	8ee\J	.	8ee\	tu-
!LO:PB:g=original	!	!LO:LB:g=original	!	!	!	!	!
=140	=140	=140	=140	=140	=140	=140	=140
8r	.	8r	8ddn\L	8ff#\L	.	8ff#\	-e-
8r	.	8r	8b\	8gg#\	.	8gg#\	-re
8AA/	.	8A/	8cc#\J	8aa\J)	.	8aa\	de-
=141	=141	=141	=141	=141	=141	=141	=141
*	*	*	*Xtuplet	*Xtuplet	*	*	*
!LO:TX:a:t=problem: mixed beam	!	!LO:TX:a:t=problem: mixed beam	!LO:TX:a:t=problem:brak oznaczenia trioli	!LO:TX:a:t=problem:brak oznaczenia trioli	!	!	!
8Dn\L	6	8dn\L	24ddn\LL	24ff#\LL	.	24ff#\LL	-fen-
.	.	.	24cc#\	24ee\	.	24ee\	.
.	.	.	24b\JJ	24ddn\JJ	.	24dd#\JJ	.
.	.	.	8qqa/	8qqcc#/	.	.	.
8E\	6 4	8e\	4g#/	4b\	.	4cc#\	-de
8EE/J	5 3	8E/J	.	.	.	.	.
!	!	!	!	!LO:LB:g=original	!	!	!
=142	=142	=142	=142	=142	=142	=142	=142
*	*	*	*tuplet	*	*	*	*
8AA/	.	8A/	16a\LL	(16cc#\LL	.	16cc#\LL	a-
.	.	.	(16cc#\JJ	16ee\JJ)	.	16ee\JJ	.
8r	.	8r	8cc#\	8ee\	.	8ee\	.
8E\	n7	8e\	16cc#\LL)	16ee\LL	.	16ee\	.
*	*	*	*	*tuplet	*	*tuplet	*
!	!	!	!LO:TX:a:t=problem: klamra łukowa nad triolą	!LO:TX:a:t=problem: klamra lukowa nad triolą	!	!LO:TX:a:t=problem: klamra łukowa nad triolą	!
.	.	.	48b\L	48ddn\L	.	48ddn\LLL	.
.	.	.	48a\	48cc#\	.	48cc#\	.
.	.	.	48g#\JJJ	48b\JJJ	.	48b\JJJ	.
=143	=143	=143	=143	=143	=143	=143	=143
8A\	.	8a\	8a/	8cc#\	.	16cc#\LL	.
.	.	.	.	.	.	16ee\JJ	.
8r	.	8r	8r	8r	.	8ee\	.
8E\	7	8e\	8b\	8ddn\	.	16ee\	.
!	!	!	!	!	!	!LO:TX:a:t=problem: klamra łukowa nad triolą	!
.	.	.	.	.	.	48ddn\LLL	.
.	.	.	.	.	.	48cc#\	.
.	.	.	.	.	.	48b\JJJ	.
=144	=144	=144	=144	=144	=144	=144	=144
!	!	!	!	!	!	!LO:TX:a:t=problem: klamra łukowa nad triolą	!
8AA/	.	8A/	16a\LL	(16cc#\LL	.	24cc#\LL	.
.	.	.	.	.	.	24b\	.
.	.	.	16cc#\JJ	16ee\JJ)	.	.	.
.	.	.	.	.	.	24a\JJ	.
8r	.	8r	8cc#\	8ee\	.	8a\	-ge
8E\	7	8e\	16cc#\LL	16ee\LL	.	8r	.
!	!	!	!LO:TX:a:t=problem: klamra łukowa nad triolą	!LO:TX:a:t=problem: klamra łukowa nad triolą	!	!	!
.	.	.	48b\L	48ddn\L	.	.	.
.	.	.	48a\	48cc#\	.	.	.
.	.	.	48g#\JJJ	48b\JJJ	.	.	.
!	!	!	!	!	!	!LO:LB:g=original	!
=145	=145	=145	=145	=145	=145	=145	=145
4A\	6	4a\	8a\L	8cc#\L	.	16cc#\LL	a-
.	.	.	.	.	.	16ff#\JJ	.
.	.	.	8cc#\	8ff#\	.	8ff#\	-ge
8G#\	6	8g#\	8b\J	[8ee\J	.	8ee\	tu-
=146	=146	=146	=146	=146	=146	=146	=146
4F#\	7	4f#\	4a/	8ee\L]	.	8ee\L	-e-
.	6n	.	.	8ddn\	.	8ddn\J	.
8E\	6	8e\	8g#/	[8cc#\J	.	8cc#\	-re
=147	=147	=147	=147	=147	=147	=147	=147
4D#X/	7	4d#X\	4f#/	8cc#\L]	.	8cc#\L	in-
.	6|	.	.	8b#X\	.	8b#X\J	-ter
8C#/	6	8c#\	8e/	8an\J	.	8an\	ceſ-
!	!	!	!LO:LB:g=original	!	!	!	!
=148	=148	=148	=148	=148	=148	=148	=148
!	!	!	!	!LO:TX:a:t=problem: mixed beam	!	!	!
4BB#X/	7	4B#X/	4d#/	8a/L	.	8a\L	-si-
.	6	.	.	8g#/	.	8g#\J	-o-
8r	.	8r	8dd#\	8ff#\J	.	8ff#\	.
!LO:LB:g=original	!	!	!	!LO:LB:g=original	!	!	!
=149	=149	=149	=149	=149	=149	=149	=149
8C#/L	.	(8c#\L	(8cc#\L	8ee\L	.	8ee\	-ne
8D#/	6|	8d#\	8b#X\	8dd#\	.	8dd#\	de-
8E/J	6|	8e\J)	8cc#\J)	8cc#\J	.	8cc#\	-fen-
=150	=150	=150	=150	=150	=150	=150	=150
8A\L	.	8a\L	(8f#/L	[4.cc#\	.	[4.dd#\	.
8G#\	.	8g#\	8e/	.	.	.	.
8F#X\J	7 5	8f##X\J	8d#/J)	.	.	.	.
=151	=151	=151	=151	=151	=151	=151	=151
4.G#\	6 4	4.g#\	4.e/	4.cc#\]	.	4.dd#\_	.
=152	=152	=152	=152	=152	=152	=152	=152
4.GG#/	5 #	4.G#/	4.b#X\	4.dd#t\	.	4.dd#t\]	.
=153	=153	=153	=153	=153	=153	=153	=153
4C#/	.	4e\	4cc#\	4cc#\	.	4cc#\	-de.
8r	.	8r	8r	8r	.	8r	.
!	!	!LO:LB:g=original	!	!	!	!LO:LB:g=original	!
=154	=154	=154	=154	=154	=154	=154	=154
!	!	!	!	!	!	!LO:TX:a:t=4	!
!	!	!	!	!	!	!LO:N:vis=00	!
8E\	.	8e\L	8g#/L	16g#\LL	.	1.r	.
.	.	.	.	16ee\JJ	.	.	.
16r	.	16r	16r	4ddn\	.	.	.
(16E\LL	n	(16e\L	(16g#/L	.	.	.	.
16F#\	7	16f#\	16a/	.	.	.	.
16G#\JJ)	.	16g#\JJ)	16b/JJ)	.	.	.	.
=155	=155	=155	=155	=155	=155	=155	=155
8A\	.	8a\	8cc#\L	16cc#\LL	.	.	.
.	.	.	.	16ff#\JJ	.	.	.
16r	.	16r	16r	4ee\	.	.	.
16F#\LL	7 #	(16f#\LL	(16a#X\L	.	.	.	.
16G#\	.	16g#\	16b\	.	.	.	.
16An\JJ	.	16a#X\JJ)	16cc#\JJ)	.	.	.	.
=156	=156	=156	=156	=156	=156	=156	=156
8B\	.	8b\	8dd#\L	16dd#\LL	.	.	.
.	.	.	.	16bb\JJ	.	.	.
!	!	!	!	!LO:N:vis=8.	!	!	!
16r	.	16r	16r	4aa\	.	.	.
16B\LL	7	16b\LL	16dd#\L	.	.	.	.
16c#\	.	16cc#\	16ee\	.	.	.	.
16d#\JJ	.	16dd#\JJ	16ff#\JJ	.	.	.	.
!	!	!	!LO:TX:a:t=problem:brak oznaczenia trioli	!	!	!	!
=157	=157	=157	=157	=157	=157	=157	=157
!	!	!	!	!LO:N:vis=16.	!	!	!
8e\L	.	8ee\L	(16.ee\LL	(16.gg#\LL	.	.	.
.	.	.	64ff#\LL	64aa\LL)	.	.	.
.	.	.	64gg#\JJJJ)	64bb\JJJJ	.	.	.
8A\	6	8a\	8ff#\L	8aa\L	.	.	.
8A#X\J	7 5	8a#X\J	8ee\J	8gg#\J	.	.	.
!LO:LB:g=original	!	!	!	!	!	!	!
=158	=158	=158	=158	=158	=158	=158	=158
!	!	!	!	!	!	!LO:TX:a:t=Da Capo al Segno [Segno]	!
4B\	6 4	4b\	8ee\L	8gg#t\L	.	4.r	.
.	5 3	.	8dd#\J	8ff#\J	.	.	.
!LO:TX:a:t=Da Capo al Segno [segno].	!	!LO:TX:a:t=Da Capo al Segno [segno]	!LO:TX:a:t=Da Capo al Segno [segno]	!LO:TX:a:t=Da Capo al Segno [segno]	!	!	!
8r	.	8r	8ryy	8ryy	.	.	.
==	==	==	==	==	==	==	==
*-	*-	*-	*-	*-	*-	*-	*-
!!!system-decoration: [(g1)][(g2)]
!!!RDF**kern: >= above
!!!RDF**kern: <= below
!!!ENC: Anna Matuszewska
!!!END: 2020-08-15
